X:1
T:Title
%%score 1 2
L:1/8
Q:1/4=105
M:4/4
K:D
V:1 treble nm="Grand Piano, Soprano"
V:2 bass nm="Choir Pad, Our Fathers’ Church, Coppin"
V:1
 F2 F>E D[CE][DF][GB] | [FA]6 [DF]2 | [DF]3 [CE] D2 [DF]2 | [CE]6 [FA]2 | %4
w: By~Levi~Jenkins~Coppin,~1882 * * * * * *||||
 [GB]3 [GB] [GB][Bd][Ac][GB] | [FA]6 [DF]2 | [CE]2 [EA]2 [Ec]2 [DB]2 | [CA]6 [FA]2 | %8
w: ||||
 [Fd]3 [Ac] [GB][FA][GB][Gc] | [Fd]6 [GB]2 | [FA]3 [DF] D2 [DF]2 | [CE]6 [FA]2 | %12
w: ||||
 [Fd]3 [Ac] [GB][FA][GB][Gc] | [Fd]6 [GB]2 | A2 [Fd]2 [Ec]2 [Ge]2 | [Fd]8 |] %16
w: ||||
V:2
 z8 | z4 z2 [D,A,]2 | [D,A,]3 [E,A,] [F,A,]2 [D,A,]2 | [A,,A,]6 z2 | z8 | z4 z2 [D,A,]2 | %6
 [A,,A,]2 [C,A,]2 [E,A,]2 [E,^G,]2 | [A,,A,]6 [D,A,]2 | [D,A,]3 [D,D] [D,D][D,D][D,D][D,D] | %9
 [D,D]6 [D,D]2 | [D,D]3 [D,A,] [F,A,]2 [D,A,]2 | [A,,A,]6 [D,A,]2 | %12
 [D,A,]3 [D,D] [D,D][D,D][D,D][D,D] | [D,D]6 [G,D]2 | [F,D]2 [D,A,]2 A,2 [A,,A,]2 | [D,A,]8 |] %16

